logos/downloads.svg

<svg id="e1nlkakh7q6e1" xmlns="http://www.w3.org/2000/svg" xmlns:xlink="http://www.w3.org/1999/xlink" viewBox="0 0 769 769" shape-rendering="geometricPrecision" text-rendering="geometricPrecision">
    <style>
        <![CDATA[#e1nlkakh7q6e1{pointer-events: all} #e1nlkakh7q6e1:hover * {animation-play-state: running !important}#e1nlkakh7q6e6_to {animation: e1nlkakh7q6e6_to__to 800ms linear infinite normal forwards}@keyframes e1nlkakh7q6e6_to__to { 0% {transform: translate(0px,0px)} 25% {transform: translate(0px,6px)} 75% {transform: translate(0px,-6px)} 100% {transform: translate(0px,0px)} }]]>
    </style>
<style type="text/css">
	.st0{fill:url(#SVGID_1_);}
	.st1{fill:#FFFFFF;stroke:#01507B;stroke-width:20;stroke-miterlimit:16;}
	.st2{fill:#DDDDDD;}
	.st3{fill:#01507B;}
</style>
<radialGradient id="SVGID_1_" cx="385.802" cy="384.6929" r="383.1984" gradientUnits="userSpaceOnUse">
	<stop  offset="0" style="stop-color:#FFC43D"/>
	<stop  offset="0.0388" style="stop-color:#FCBA3C"/>
	<stop  offset="0.3236" style="stop-color:#E77538"/>
	<stop  offset="0.5292" style="stop-color:#D94A35"/>
	<stop  offset="0.6335" style="stop-color:#D43934"/>
	<stop  offset="0.6579" style="stop-color:#CE3732"/>
	<stop  offset="0.7731" style="stop-color:#B62F2A"/>
	<stop  offset="0.8803" style="stop-color:#A82A26"/>
	<stop  offset="0.971" style="stop-color:#A32824"/>
</radialGradient>
<path class="st0" d="M769,384.78c0,96.16,0,192.32,0,288.49c0,44.08-33.24,84.37-76.66,92.62c-6.42,1.22-13.05,1.92-19.58,1.92
	c-191.68,0.1-383.36,0.08-575.04,0.08c-46.99,0-88-36.04-94.16-82.8c-0.54-4.13-0.91-8.31-0.91-12.47
	C2.6,480.45,2.6,288.29,2.6,96.13c0-44.09,33.26-84.39,76.66-92.63c6.42-1.22,13.05-1.92,19.58-1.92
	C290.68,1.48,482.52,1.5,674.37,1.5c44.09,0,84.44,33.3,92.63,76.66c1.21,6.42,1.91,13.05,1.92,19.58
	C769.03,193.42,769,289.1,769,384.78z"/>
    <g id="e1nlkakh7q6e4">
        <g id="e1nlkakh7q6e5" transform="matrix(4 0 0 4 -802.30495453000003 -2317.30838011500055)">
            <g id="e1nlkakh7q6e6_to" transform="translate(0,0)">
                <path
                    id="e1nlkakh7q6e6"
                    d="M272.100000,646.380000C272.100000,645.580000,272.100000,644.990000,272.100000,644.400000C272.100000,631.770000,272.280000,619.140000,272.030000,606.520000C271.890000,599.810000,276.740000,593.960000,283.480000,592.410000C284.320000,592.220000,285.200000,592.070000,286.060000,592.070000C293.300000,592.040000,300.540000,592.020000,307.780000,592.070000C314.200000,592.110000,320.210000,596.990000,321.550000,603.240000C321.830000,604.550000,321.840000,605.940000,321.850000,607.290000C321.870000,619.650000,321.860000,632,321.860000,644.360000C321.860000,644.950000,321.860000,645.540000,321.860000,646.290000C322.570000,646.330000,323.150000,646.370000,323.730000,646.380000C327.540000,646.460000,331.340000,646.520000,335.150000,646.630000C335.850000,646.650000,336.550000,646.800000,337.230000,647C341.080000,648.100000,342.640000,651.290000,340.530000,654.670000C338.670000,657.640000,336.250000,660.280000,333.950000,662.950000C324.940000,673.420000,315.860000,683.840000,306.840000,694.310000C303.380000,698.320000,299.170000,700.100000,293.920000,698.880000C291.350000,698.280000,289.260000,696.830000,287.540000,694.850000C276.640000,682.270000,265.740000,669.680000,254.870000,657.080000C254.240000,656.350000,253.700000,655.500000,253.260000,654.630000C251.490000,651.130000,252.800000,648.050000,256.600000,647.050000C258.260000,646.610000,260.030000,646.470000,261.760000,646.420000C265.120000,646.320000,268.490000,646.380000,272.100000,646.380000Z"
                    transform="translate(0,0)"
                    fill="#fff"
                    stroke="none"
                    stroke-width="1"
                />
            </g>
            <path
                id="e1nlkakh7q6e7"
                d="M380.590000,727.600000C380.590000,716.400000,371.230000,707.070000,359.990000,707.070000C317.970000,707.070000,275.950000,707.070000,233.920000,707.070000C227.080000,707.070000,221.700000,710.040000,217.480000,715.300000C215.250000,718.070000,214.220000,721.360000,213.280000,724.700000C213.280000,730.360000,213.280000,736.030000,213.280000,741.690000C214.180000,744.870000,215.160000,748,217.190000,750.710000C220.500000,755.110000,224.790000,757.930000,230.210000,759.020000C230.460000,759.070000,230.690000,759.230000,230.930000,759.330000C274.940000,759.330000,318.950000,759.330000,362.950000,759.330000C363.190000,759.220000,363.420000,759.070000,363.660000,759.020000C373.660000,757.010000,380.590000,748.560000,380.590000,738.360000C380.590000,734.780000,380.590000,731.190000,380.590000,727.600000ZM341.240000,743.660000C335.420000,743.640000,330.880000,739,330.890000,733.100000C330.910000,727.290000,335.550000,722.720000,341.430000,722.730000C347.180000,722.740000,351.920000,727.550000,351.840000,733.290000C351.770000,739.090000,347.060000,743.690000,341.240000,743.660000Z"
                fill="#fff"
                stroke="none"
                stroke-width="1"
            />
        </g>
    </g>
</svg>

<svg xmlns="http://www.w3.org/2000/svg" id="downloads" viewBox="0 0 769 769" width="500" height="500" shape-rendering="geometricPrecision" text-rendering="geometricPrecision" version="1.1">
  <style id="point">
    @keyframes download_arrow_animation__to{0%,to{transform:translate(0,0)}25%{transform:translate(0,6px)}75%{transform:translate(0,-6px)}}#download_arrow_animation{animation:download_arrow_animation__to 800ms linear infinite normal forwards}
  </style>
  <g id="background" transform="matrix(4 0 0 4 -802.32 -2317.326)">
    <path id="square" d="M392.83 675.71v72.19c0 11.03-8.32 21.11-19.18 23.18-1.61.31-3.27.48-4.9.48-47.97.03-95.93.02-143.9.02-11.76 0-22.02-9.02-23.56-20.72a23.27 23.27 0 01-.23-3.12c-.01-48.09-.01-96.18-.01-144.26 0-11.03 8.32-21.12 19.18-23.18 1.61-.31 3.27-.48 4.9-.48 48.01-.02 96.02-.02 144.02-.02 11.03 0 21.13 8.33 23.18 19.18.3 1.61.48 3.27.48 4.9.02 23.95.02 47.89.02 71.83z" fill="#FE8A30" stroke="none" stroke-width="1"/>
  </g>
  <g id="download_top">
    <g id="download_group" transform="matrix(4 0 0 4 -802.305 -2317.308)">
      <g id="download_arrow_animation">
        <path id="download_arrow" d="M272.1 646.38v-1.98c0-12.63.18-25.26-.07-37.88-.14-6.71 4.71-12.56 11.45-14.11.84-.19 1.72-.34 2.58-.34 7.24-.03 14.48-.05 21.72 0 6.42.04 12.43 4.92 13.77 11.17.28 1.31.29 2.7.3 4.05.02 12.36.01 24.71.01 37.07v1.93c.71.04 1.29.08 1.87.09 3.81.08 7.61.14 11.42.25.7.02 1.4.17 2.08.37 3.85 1.1 5.41 4.29 3.3 7.67-1.86 2.97-4.28 5.61-6.58 8.28-9.01 10.47-18.09 20.89-27.11 31.36-3.46 4.01-7.67 5.79-12.92 4.57-2.57-.6-4.66-2.05-6.38-4.03-10.9-12.58-21.8-25.17-32.67-37.77-.63-.73-1.17-1.58-1.61-2.45-1.77-3.5-.46-6.58 3.34-7.58 1.66-.44 3.43-.58 5.16-.63 3.36-.1 6.73-.04 10.34-.04z" fill="#FFF" stroke="none" stroke-width="1"/>
      </g>
      <path id="download_drive" d="M380.59 727.6c0-11.2-9.36-20.53-20.6-20.53H233.92c-6.84 0-12.22 2.97-16.44 8.23-2.23 2.77-3.26 6.06-4.2 9.4v16.99c.9 3.18 1.88 6.31 3.91 9.02 3.31 4.4 7.6 7.22 13.02 8.31.25.05.48.21.72.31h132.02c.24-.11.47-.26.71-.31 10-2.01 16.93-10.46 16.93-20.66V727.6zm-39.35 16.06c-5.82-.02-10.36-4.66-10.35-10.56.02-5.81 4.66-10.38 10.54-10.37 5.75.01 10.49 4.82 10.41 10.56-.07 5.8-4.78 10.4-10.6 10.37z" fill="#FFF" stroke="none" stroke-width="1"/>
    </g>
  </g>
</svg>
